build/img/icon-forest.svg

<svg width="23" height="23" viewBox="0 0 23 23" fill="none" xmlns="http://www.w3.org/2000/svg">
<path d="M22.6246 16.6366L18.1102 11.4721H20.2913C20.546 11.4714 20.7519 11.2645 20.7514 11.0098C20.7511 10.9085 20.7175 10.81 20.6556 10.7297L17.0312 5.96629H18.8757C19.1304 5.96595 19.3365 5.75925 19.3363 5.5046C19.3361 5.39278 19.2953 5.28482 19.2215 5.20083L14.7856 0.156187C14.6172 -0.0348313 14.3257 -0.0531031 14.1347 0.115378C14.1202 0.128117 14.1066 0.141778 14.0939 0.156187L9.65332 5.19622C9.4827 5.38528 9.49763 5.67688 9.68663 5.8475C9.77229 5.92479 9.88376 5.96716 9.99916 5.96629H11.8667L10.7508 7.42343L7.76273 4.02498C7.5943 3.83396 7.30288 3.81569 7.11186 3.98417C7.09739 3.99691 7.08379 4.01057 7.07105 4.02498L3.27604 8.33645C3.10796 8.52775 3.12681 8.81912 3.31811 8.9872C3.40209 9.06098 3.51005 9.10173 3.62188 9.10191H5.08362L2.04946 13.0721C1.89919 13.2777 1.94398 13.5662 2.14958 13.7166C2.22636 13.7727 2.31864 13.8037 2.41374 13.8053H4.11988L0.370984 18.1168C0.205442 18.3103 0.228094 18.6014 0.421649 18.767C0.503959 18.8374 0.608518 18.8766 0.716823 18.8776H5.8168V22.1055C5.8168 22.5995 6.21734 23 6.71138 23H8.11779C8.61182 23.0026 9.01444 22.6042 9.01697 22.1101C9.01697 22.1085 9.01697 22.107 9.01697 22.1055V18.8776H12.8443V22.1055C12.8443 22.5995 13.2448 23 13.7388 23H15.1453C15.6393 23 16.0398 22.5995 16.0398 22.1055V17.4021H22.2788C22.5334 17.4017 22.7396 17.195 22.7393 16.9404C22.7391 16.8285 22.6984 16.7206 22.6246 16.6366ZM8.09473 22.0778L6.73904 22.1055L6.71138 18.8776H8.09473V22.0778ZM12.8443 17.9554H1.73129L5.50324 13.6532C5.67397 13.4642 5.65916 13.1726 5.47021 13.0019C5.38214 12.9223 5.2668 12.8798 5.14818 12.8831H3.34981L6.38398 8.91285C6.53932 8.71105 6.50168 8.42152 6.29988 8.26618C6.21953 8.20434 6.12109 8.17067 6.0197 8.17044H4.63634L7.40306 5.021L10.1698 8.16122L8.22385 10.7343C8.06851 10.9361 8.10615 11.2256 8.30795 11.3809C8.3883 11.4428 8.48674 11.4764 8.58813 11.4767H10.7738L6.25948 16.6412C6.0914 16.8325 6.11025 17.1239 6.30156 17.292C6.38554 17.3657 6.4935 17.4065 6.60532 17.4067H12.8443V17.9554ZM15.1176 22.0686L13.7665 22.1055L13.7388 17.4021H15.1222L15.1176 22.0686ZM15.1453 16.4798H7.61978L12.1341 11.3153C12.3022 11.124 12.2834 10.8326 12.0921 10.6645C12.0081 10.5907 11.9001 10.55 11.7883 10.5498H9.52421L13.167 5.78185C13.3199 5.57815 13.2786 5.28908 13.0749 5.13628C12.9963 5.07737 12.901 5.04503 12.8028 5.04405H11.0367L14.4582 1.16143L17.8612 5.04405H16.0813C15.8267 5.04469 15.6207 5.25162 15.6213 5.50627C15.6215 5.60766 15.6552 5.70611 15.717 5.78646L19.3368 10.5498H17.0912C16.8365 10.5502 16.6303 10.7569 16.6306 11.0115C16.6307 11.1233 16.6716 11.2313 16.7453 11.3153L21.2597 16.4798H15.1453Z" fill="#2D383F"/>
</svg>

<svg width="23" height="23" fill="none" xmlns="http://www.w3.org/2000/svg"><path d="M22.625 16.637l-4.515-5.165h2.181a.461.461 0 00.365-.742L17.03 5.966h1.845a.461.461 0 00.345-.765L14.787.156a.461.461 0 00-.692 0l-4.44 5.04a.461.461 0 00.345.77h1.868L10.75 7.423 7.763 4.025a.461.461 0 00-.692 0L3.276 8.336a.461.461 0 00.346.766h1.462l-3.035 3.97a.461.461 0 00.365.733H4.12L.37 18.117a.461.461 0 00.346.76h5.1v3.229c0 .493.4.894.894.894h1.407a.894.894 0 00.899-.89v-3.232h3.827v3.227c0 .494.4.895.895.895h1.406c.494 0 .895-.4.895-.895v-4.703h6.239a.461.461 0 00.346-.765zm-14.53 5.44l-1.356.028-.028-3.227h1.384v3.2zm4.75-4.122H1.73l3.772-4.302a.461.461 0 00-.355-.77H3.35l3.034-3.97a.461.461 0 00-.364-.743H4.636l2.767-3.149 2.767 3.14-1.946 2.573a.461.461 0 00.364.743h2.186L6.259 16.64a.461.461 0 00.346.766h6.24v.548zm2.273 4.114l-1.351.037-.028-4.704h1.383l-.004 4.667zm.027-5.59H7.62l4.514-5.164a.461.461 0 00-.346-.765H9.524l3.643-4.768a.461.461 0 00-.364-.738h-1.766l3.421-3.883 3.403 3.883h-1.78a.461.461 0 00-.364.742l3.62 4.764H17.09a.461.461 0 00-.346.765l4.515 5.165h-6.115z" fill="#2D383F"/></svg>
